X:1
T:Lord Charles Murray's Strathspey
T:Lord Charles Murray's Strathspey
T:Niel Gow (1727-1807)
C:Niel Gow (1727-1807)
L:1/8
M:4/4
K:Dmin
V:1 treble 
V:1
 Dd Fd E>C E/F/G/E/ | D<d F<d D<d F<d | G<e F<d E>C E/F/G/E/ | Dd Fd A(DF)d | E<C E/F/G/E/ | %5
 Dd Fd Dd Fd | Ge Fd EC E/F/G/E/ | Dd Fd .A(DF).A | d>a f/g/a/f/ gceg | da f/g/a/f/ dafd | %10
 gb/g/ fa/f/ gceg |{g} Tf>d e>^c .D(DF).G | d>a f/g/a/f/ gceg | d>a f/g/a/f/ dafd | %14
 gb/g/ fa/f/ gceg | a>f g>e .d(DFA) || %16

